tools/download-figma-icons/icons/solid/multi-lightning.svg

<svg width="25" height="24" viewBox="0 0 25 24" fill="none" xmlns="http://www.w3.org/2000/svg">
<path fill-rule="evenodd" clip-rule="evenodd" d="M15.001 17.024V14.999H13.156C12.0985 14.999 11.1385 14.489 10.6585 13.5515C10.1785 12.629 10.2535 11.5265 10.861 10.679L12.001 8.99902V1.58902C12.001 0.876516 11.5735 0.284016 10.906 0.0740161C10.2385 -0.135984 9.54096 0.111516 9.15096 0.681516L0.278458 12.6965C-0.0447921 13.1615 -0.0890421 13.7165 0.158458 14.1815C0.421708 14.684 0.975958 14.999 1.62096 14.999H7.50096V22.409C7.50096 23.1215 7.92846 23.714 8.59596 23.924C8.75346 23.9765 8.91846 23.999 9.07596 23.999C9.57846 23.999 10.051 23.7515 10.351 23.3165L15.001 17.024ZM22.7484 8.99866C23.2209 8.99866 23.6476 9.26116 23.8651 9.67366C24.0759 10.0862 24.0384 10.5662 23.7751 10.9337L18.6159 18.2237C18.3684 18.5619 18.0159 18.7494 17.6416 18.7494C17.5284 18.7494 17.4159 18.7337 17.3034 18.6962C16.8159 18.5387 16.5009 18.0819 16.5009 17.5269V13.4994H13.2534C12.7809 13.4994 12.3541 13.2362 12.1366 12.8162C11.9266 12.4112 11.9634 11.9312 12.2266 11.5562L13.9891 8.99866L17.2366 4.28041C17.5584 3.83041 18.1209 3.64291 18.6466 3.80866C19.1559 3.97291 19.5009 4.43791 19.5009 4.97041V8.99866H22.7484Z" fill="black"/>
</svg>

<svg width="25" height="24" viewBox="0 0 25 24" fill="none" xmlns="http://www.w3.org/2000/svg"><path fill-rule="evenodd" clip-rule="evenodd" d="M15.001 17.024v-2.025h-1.845c-1.058 0-2.018-.51-2.498-1.447a2.74 2.74 0 0 1 .203-2.873l1.14-1.68v-7.41c0-.712-.428-1.305-1.095-1.515a1.544 1.544 0 0 0-1.755.608L.278 12.696c-.323.466-.367 1.02-.12 1.486.264.502.818.817 1.463.817h5.88v7.41c0 .713.427 1.305 1.095 1.515a1.545 1.545 0 0 0 1.755-.607l4.65-6.293Zm7.747-8.025c.473 0 .9.262 1.117.675.21.412.173.892-.09 1.26l-5.16 7.29c-.247.338-.6.525-.973.525-.114 0-.226-.015-.339-.053-.487-.157-.802-.614-.802-1.17V13.5h-3.248c-.472 0-.899-.263-1.116-.683a1.21 1.21 0 0 1 .09-1.26L13.989 9l3.248-4.719c.321-.45.884-.637 1.41-.471.509.164.854.629.854 1.161V9h3.247Z" fill="currentColor"/></svg>
